icons/brain.svg

<svg width="24" height="24" viewBox="0 0 24 24" fill="none" xmlns="http://www.w3.org/2000/svg">
<path d="M11.9994 18.1091V5.99221M11.9994 18.1091L11.9994 11.1349M11.9994 18.1091C11.9994 23.6067 19.9552 23.1154 19.416 17.6647C22.5768 15.7689 22.7159 10.0388 20.4972 7.40758C20.9523 1.24862 12.0136 -0.214708 11.9994 5.99221M11.9994 18.1091C11.9994 23.6099 4.07314 23.1104 4.58286 17.6647C1.42565 15.7674 1.28283 10.039 3.50169 7.40758C3.04695 1.25336 11.9853 -0.219533 11.9994 5.99221M11.9994 5.99221L11.9994 11.1349M17.4506 14.8782C17.9974 15.0159 19.2332 15.9098 19.4192 17.6527M16.1711 7.25866C13.94 7.53421 12.0573 10.0792 11.9994 11.1349M11.9994 11.1349C11.9416 10.0792 10.0589 7.53424 7.82781 7.25868M19.3582 9.86693C19.9144 9.3847 20.3581 8.28764 20.5003 7.4093M6.54831 14.8782C6.00148 15.016 4.76564 15.9098 4.57972 17.6527M4.64065 9.86695C4.08445 9.38473 3.64073 8.28767 3.49856 7.40933" stroke="black" stroke-width="2" stroke-linecap="round" stroke-linejoin="round"/>
</svg>

<svg xmlns="http://www.w3.org/2000/svg" width="24" height="24" viewBox="0 0 24 24" fill="none" stroke="currentColor" stroke-width="2" stroke-linecap="round" stroke-linejoin="round">
<path d="M12 18.11V5.991m0 12.117v-6.974m0 6.974c0 5.498 7.955 5.006 7.416-.444 3.16-1.896 3.3-7.626 1.081-10.257.455-6.16-8.483-7.623-8.498-1.416m0 12.117c0 5.5-7.926 5.001-7.416-.444-3.157-1.898-3.3-7.626-1.081-10.257-.455-6.155 8.483-7.628 8.497-1.416m0 0v5.143m5.452 3.743c.546.138 1.782 1.032 1.968 2.775M16.171 7.259c-2.231.275-4.114 2.82-4.172 3.876m0 0c-.057-1.056-1.94-3.6-4.171-3.876m11.53 2.608c.556-.482 1-1.58 1.142-2.458M6.548 14.88c-.547.137-1.782 1.03-1.968 2.774m.06-7.786c-.556-.482-1-1.58-1.141-2.458"/>
</svg>
